svg/mono/jcb.svg

<svg height="471" viewBox="0 0 750 471" width="750" xmlns="http://www.w3.org/2000/svg"><path d="m0 40.0047706c0-22.0940247 17.9143492-40.0047706 39.9919369-40.0047706h670.0161261c22.086937 0 39.991937 17.9064659 39.991937 40.0047706v390.9904584c0 22.094025-17.914349 40.004771-39.991937 40.004771h-670.0161261c-22.0869369 0-39.9919369-17.906466-39.9919369-40.004771zm179.180777 218.9445294s-.273259-89.5021.03034-130.713584c4.054224-24.089001 28.713217-42.119028 52.864848-39.91895h67.310515c-.0789 81.941864-.0683 163.886424-.20314 245.826604-.74635 24.24305-21.88376 45.46784-46.179915 46.07374-24.596815.0721-49.196149.0105-73.793937.031v-102.36183c18.264856 3.34751 36.626104 6.95237 55.313504 5.86236 17.923305-.93137 39.537528-3.67524 49.801728-20.44226 7.59693-12.38525 4.19217-27.16287 4.823-40.8607l-.23281-35.02929c-13.85232.0774-27.70464.15489-41.556967.23234-.200364 20.3779.411493 40.80012-.325899 61.1488-1.596968 13.5333-16.078567 20.48386-28.516122 19.23382-14.38394-.13222-27.187303-5.50203-39.335145-9.08205zm135.669843-56.3928c.15364-23.04134-.31645-46.105843.25211-69.131787 1.6841-21.943077 20.124-40.412279 41.80275-43.091567 21.80037-.717971 43.672-.113144 65.50027-.312841h12.70144c-.0564 82.335025.11285 164.675695-.0847 247.007175-1.5733 25.57784-26.2495 47.05322-51.82331 44.62372h-68.34851v-112.04193c17.82059 14.07505 41.89423 16.19033 63.85722 15.90731 14.42135-.37438 28.79787-2.51748 42.70307-6.35682-.10071-6.76991-.20142-13.53981-.30213-20.30971-19.63891 9.45349-43.98235 16.1344-64.47132 5.37602-16.27614-9.31594-18.18786-32.76987-9.48731-47.86263 10.74645-15.65641 32.45408-16.12208 49.35354-12.81175 8.2927.73852 19.43169 8.15781 24.90722 7.99048v-18.59647c-28.34546-7.16643-58.71741-9.48539-87.11474-1.37066-7.06049 2.414-13.97289 5.82928-19.44555 10.98146zm134.05951 78.624v98.9546c25.40901-.0606 50.83235.12109 76.23243-.0907 24.15687-2.16736 45.13425-24.23224 43.88382-48.83672v-242.899863c-25.06545.09218-50.14129-.185316-75.20017.140412-25.20246 1.521518-46.62552 25.056733-44.91608 50.401254v48.770637c25.22736.11344 50.47179-.22865 75.68831.1742 13.25128.32531 27.38603 10.70453 24.98392 25.24757-1.0073 11.1285-11.59437 18.42894-21.99714 19.64076 12.99985 1.03728 28.16749 9.42882 27.91114 24.14848.34108 15.87429-16.81059 24.8889-30.89727 24.34935h-75.68896zm24.05862-77.921617v23.785396h25.972762s12.170229-.035554 12.170229-11.910475-12.170229-11.874921-12.170229-11.874921zm27.781143 37.754857h-27.781143v25.554916h27.781143c.079672 0 13.695955.792356 13.695955-12.777457s-13.695955-12.777459-13.695955-12.777459z" fill="#393939" fill-rule="evenodd"/></svg>

<svg width="750" height="471" viewBox="0 0 750 471" version="1.1" xmlns="http://www.w3.org/2000/svg" xmlns:xlink="http://www.w3.org/1999/xlink">
    <!-- Generator: Sketch 48.2 (47327) - http://www.bohemiancoding.com/sketch -->
    <desc>Created with Sketch.</desc>
    <defs></defs>
    <g id="Page-1" stroke="none" stroke-width="1" fill="none" fill-rule="evenodd">
        <g id="jcb" fill="#393939">
            <path d="M0,40.0047706 C0,17.9107459 17.9143492,0 39.9919369,0 L710.008063,0 C732.095,0 750,17.9064659 750,40.0047706 L750,430.995229 C750,453.089254 732.085651,471 710.008063,471 L39.9919369,471 C17.905,471 0,453.093534 0,430.995229 L0,40.0047706 Z M179.180777,258.9493 C179.180777,258.9493 178.907518,169.4472 179.211117,128.235716 C183.265341,104.146715 207.924334,86.116688 232.075965,88.316766 L299.38648,88.316766 C299.30758,170.25863 299.31818,252.20319 299.18334,334.14337 C298.43699,358.38642 277.29958,379.61121 253.003425,380.21711 C228.40661,380.28921 203.807276,380.22761 179.209488,380.24811 L179.209488,277.88628 C197.474344,281.23379 215.835592,284.83865 234.522992,283.74864 C252.446297,282.81727 274.06052,280.0734 284.32472,263.30638 C291.92165,250.92113 288.51689,236.14351 289.14772,222.44568 L288.91491,187.41639 C275.06259,187.49379 261.21027,187.57128 247.357943,187.64873 C247.157579,208.02663 247.769436,228.44885 247.032044,248.79753 C245.435076,262.33083 230.953477,269.28139 218.515922,268.03135 C204.131982,267.89913 191.328619,262.52932 179.180777,258.9493 Z M314.85062,202.5565 C315.00426,179.51516 314.53417,156.450657 315.10273,133.424713 C316.78683,111.481636 335.22673,93.012434 356.90548,90.333146 C378.70585,89.615175 400.57748,90.220002 422.40575,90.020305 L435.10719,90.020305 C435.05079,172.35533 435.22004,254.696 435.02249,337.02748 C433.44919,362.60532 408.77299,384.0807 383.19918,381.6512 L314.85067,381.6512 L314.85067,269.60927 C332.67126,283.68432 356.7449,285.7996 378.70789,285.51658 C393.12924,285.1422 407.50576,282.9991 421.41096,279.15976 C421.31025,272.38985 421.20954,265.61995 421.10883,258.85005 C401.46992,268.30354 377.12648,274.98445 356.63751,264.22607 C340.36137,254.91013 338.44965,231.4562 347.1502,216.36344 C357.89665,200.70703 379.60428,200.24136 396.50374,203.55169 C404.79644,204.29021 415.93543,211.7095 421.41096,211.54217 L421.41096,192.9457 C393.0655,185.77927 362.69355,183.46031 334.29622,191.57504 C327.23573,193.98904 320.32333,197.40432 314.85067,202.5565 L314.85062,202.5565 Z M448.91013,281.1805 L448.91013,380.1351 C474.31914,380.0745 499.74248,380.25619 525.14256,380.0444 C549.29943,377.87704 570.27681,355.81216 569.02638,331.20768 L569.02638,88.307817 C543.96093,88.399997 518.88509,88.122501 493.82621,88.448229 C468.62375,89.969747 447.20069,113.504962 448.91013,138.849483 L448.91013,187.62012 C474.13749,187.73356 499.38192,187.39147 524.59844,187.79432 C537.84972,188.11963 551.98447,198.49885 549.58236,213.04189 C548.57506,224.17039 537.98799,231.47083 527.58522,232.68265 C540.58507,233.71993 555.75271,242.11147 555.49636,256.83113 C555.83744,272.70542 538.68577,281.72003 524.59909,281.18048 L448.91013,281.18048 L448.91013,281.1805 Z M472.96875,203.258883 L472.96875,227.044279 L498.941512,227.044279 C498.941512,227.044279 511.111741,227.008725 511.111741,215.133804 C511.111741,203.258883 498.941512,203.258883 498.941512,203.258883 L472.96875,203.258883 Z M500.749893,241.01374 L472.96875,241.01374 L472.96875,266.568656 L500.749893,266.568656 C500.829565,266.568656 514.445848,267.361012 514.445848,253.791199 C514.445848,240.221386 500.749893,241.01374 500.749893,241.01374 Z" id="Shape"></path>
        </g>
    </g>
</svg>
